X:1
T:Babylon is fallen
M:4/4
K:Amin
c2 cB A2 A2 | E2 B2 c2 B2 | c2 cB A2 c2 | BA G2 A4 :|
C3 D E2 G2 | A2 AB AGED | C3 D E2 G2 | A2 AB B4 |
c2 cB A2 A2 | E2 B2 c2 B2 | c2 cB A2 c2 | BA G2 A4 ||
